Newaita-dark/apps/22/qwinff.svg

<?xml version="1.0" encoding="UTF-8"?>
<svg xmlns="http://www.w3.org/2000/svg" xmlns:xlink="http://www.w3.org/1999/xlink" width="22pt" height="22pt" viewBox="0 0 22 22" version="1.1">
<defs>
<linearGradient id="linear0" gradientUnits="userSpaceOnUse" x1="254" y1="233.5" x2="254" y2="254.666672" gradientTransform="matrix(0.0429729,0,0,0.0429729,0.227396,9.239165)">
<stop offset="0" style="stop-color:rgb(0%,0%,0%);stop-opacity:0.27451;"/>
<stop offset="1" style="stop-color:rgb(0%,0%,0%);stop-opacity:0;"/>
</linearGradient>
<radialGradient id="radial0" gradientUnits="userSpaceOnUse" cx="450.908936" cy="189.579361" fx="450.908936" fy="189.579361" r="21.166656" gradientTransform="matrix(0.000000119742,-0.0537161,-0.0966889,-0.0000000698078,34.475434,43.721791)">
<stop offset="0" style="stop-color:rgb(0%,0%,0%);stop-opacity:0.313725;"/>
<stop offset="0.222222" style="stop-color:rgb(0%,0%,0%);stop-opacity:0.27451;"/>
<stop offset="1" style="stop-color:rgb(0%,0%,0%);stop-opacity:0;"/>
</radialGradient>
<radialGradient id="radial1" gradientUnits="userSpaceOnUse" cx="450.908936" cy="189.579361" fx="450.908936" fy="189.579361" r="21.166656" gradientTransform="matrix(-0.000000119742,0.0537161,0.0966889,0.0000000698078,-2.639704,-5.175142)">
<stop offset="0" style="stop-color:rgb(0%,0%,0%);stop-opacity:0.313725;"/>
<stop offset="0.222222" style="stop-color:rgb(0%,0%,0%);stop-opacity:0.27451;"/>
<stop offset="1" style="stop-color:rgb(0%,0%,0%);stop-opacity:0;"/>
</radialGradient>
<radialGradient id="radial2" gradientUnits="userSpaceOnUse" cx="450.908936" cy="189.579361" fx="450.908936" fy="189.579361" r="21.166656" gradientTransform="matrix(-0.000000119742,-0.0537161,0.0966889,-0.0000000698078,-2.639704,43.721791)">
<stop offset="0" style="stop-color:rgb(0%,0%,0%);stop-opacity:0.313725;"/>
<stop offset="0.222222" style="stop-color:rgb(0%,0%,0%);stop-opacity:0.27451;"/>
<stop offset="1" style="stop-color:rgb(0%,0%,0%);stop-opacity:0;"/>
</radialGradient>
<radialGradient id="radial3" gradientUnits="userSpaceOnUse" cx="450.908936" cy="189.579361" fx="450.908936" fy="189.579361" r="21.166656" gradientTransform="matrix(0.000000119742,0.0537161,-0.0966889,0.0000000698078,34.475433,-5.175142)">
<stop offset="0" style="stop-color:rgb(0%,0%,0%);stop-opacity:0.313725;"/>
<stop offset="0.222222" style="stop-color:rgb(0%,0%,0%);stop-opacity:0.27451;"/>
<stop offset="1" style="stop-color:rgb(0%,0%,0%);stop-opacity:0;"/>
</radialGradient>
<linearGradient id="linear1" gradientUnits="userSpaceOnUse" x1="1102.302856" y1="1593.401855" x2="1611.4198" y2="1084.284912" gradientTransform="matrix(0.00803973,-0.00803973,0.00803973,0.00803973,-5.688291,15.32502)">
<stop offset="0" style="stop-color:rgb(100%,43.921569%,26.27451%);stop-opacity:1;"/>
<stop offset="1" style="stop-color:rgb(100%,54.117647%,39.607843%);stop-opacity:1;"/>
</linearGradient>
<linearGradient id="linear2" gradientUnits="userSpaceOnUse" x1="190.5" y1="148.833328" x2="190.5" y2="-168.666656" gradientTransform="matrix(0.0429729,0,0,0.0429729,0,9.239163)">
<stop offset="0" style="stop-color:rgb(25.882353%,64.705882%,96.078431%);stop-opacity:1;"/>
<stop offset="1" style="stop-color:rgb(39.215686%,70.980392%,96.470588%);stop-opacity:1;"/>
</linearGradient>
</defs>
<g id="surface1">
<path style=" stroke:none;fill-rule:nonzero;fill:url(#linear0);" d="M 15.464844 19.273438 L 16.371094 19.273438 L 16.371094 20.183594 L 15.464844 20.183594 Z M 15.464844 19.273438 "/>
<path style=" stroke:none;fill-rule:nonzero;fill:url(#radial0);" d="M 16.371094 19.273438 L 18.191406 19.273438 L 18.191406 18.363281 L 16.371094 18.363281 Z M 16.371094 19.273438 "/>
<path style=" stroke:none;fill-rule:nonzero;fill:url(#radial1);" d="M 15.464844 19.273438 L 13.644531 19.273438 L 13.644531 20.183594 L 15.464844 20.183594 Z M 15.464844 19.273438 "/>
<path style=" stroke:none;fill-rule:nonzero;fill:url(#radial2);" d="M 15.464844 19.273438 L 13.644531 19.273438 L 13.644531 18.363281 L 15.464844 18.363281 Z M 15.464844 19.273438 "/>
<path style=" stroke:none;fill-rule:nonzero;fill:url(#radial3);" d="M 16.371094 19.273438 L 18.191406 19.273438 L 18.191406 20.183594 L 16.371094 20.183594 Z M 16.371094 19.273438 "/>
<path style=" stroke:none;fill-rule:nonzero;fill:rgb(100%,100%,100%);fill-opacity:0.392157;" d="M 16.082031 11.136719 C 15.035156 11.136719 13.992188 11.535156 13.1875 12.335938 L 12.546875 11.695312 L 12.0625 14.105469 C 11.902344 14.910156 11.902344 14.910156 12.707031 14.75 L 15.117188 14.265625 L 14.476562 13.625 C 15.367188 12.734375 16.800781 12.734375 17.691406 13.625 C 17.800781 13.734375 17.898438 13.851562 17.980469 13.976562 L 19.28125 12.675781 C 19.1875 12.558594 19.085938 12.445312 18.976562 12.335938 C 18.175781 11.535156 17.128906 11.136719 16.082031 11.136719 Z M 19.894531 15.523438 C 19.78125 15.523438 19.609375 15.558594 19.355469 15.605469 L 16.945312 16.089844 L 17.585938 16.734375 C 16.695312 17.625 15.261719 17.625 14.371094 16.734375 C 14.261719 16.621094 14.164062 16.503906 14.082031 16.378906 L 12.78125 17.679688 C 12.875 17.796875 12.976562 17.910156 13.085938 18.019531 C 14.6875 19.621094 17.269531 19.621094 18.875 18.019531 L 19.515625 18.664062 L 20 16.25 C 20.109375 15.699219 20.144531 15.523438 19.894531 15.523438 Z M 19.894531 15.523438 "/>
<path style=" stroke:none;fill-rule:nonzero;fill:url(#linear1);" d="M 16.082031 11.136719 C 15.035156 11.136719 13.992188 11.535156 13.1875 12.335938 L 12.546875 11.695312 L 12.0625 14.105469 C 11.902344 14.910156 11.902344 14.910156 12.707031 14.75 L 15.117188 14.265625 L 14.476562 13.625 C 15.367188 12.734375 16.800781 12.734375 17.691406 13.625 C 17.800781 13.734375 17.898438 13.851562 17.980469 13.976562 L 19.28125 12.675781 C 19.1875 12.558594 19.085938 12.445312 18.976562 12.335938 C 18.175781 11.535156 17.128906 11.136719 16.082031 11.136719 Z M 19.894531 15.523438 C 19.78125 15.523438 19.609375 15.558594 19.355469 15.605469 L 16.945312 16.089844 L 17.585938 16.734375 C 16.695312 17.625 15.261719 17.625 14.371094 16.734375 C 14.261719 16.621094 14.164062 16.503906 14.082031 16.378906 L 12.78125 17.679688 C 12.875 17.796875 12.976562 17.910156 13.085938 18.019531 C 14.6875 19.621094 17.269531 19.621094 18.875 18.019531 L 19.515625 18.664062 L 20 16.25 C 20.109375 15.699219 20.144531 15.523438 19.894531 15.523438 Z M 19.894531 15.523438 "/>
<path style=" stroke:none;fill-rule:nonzero;fill:rgb(100%,100%,100%);fill-opacity:0.392157;" d="M 16.082031 11.136719 C 15.035156 11.136719 13.992188 11.535156 13.1875 12.335938 L 12.546875 11.695312 L 12.0625 14.105469 C 12 14.417969 11.964844 14.609375 11.988281 14.714844 C 12 14.609375 12.027344 14.46875 12.0625 14.285156 L 12.546875 11.875 L 13.1875 12.515625 C 13.992188 11.714844 15.035156 11.3125 16.082031 11.3125 C 17.128906 11.3125 18.175781 11.714844 18.976562 12.515625 C 19.054688 12.59375 19.128906 12.675781 19.199219 12.757812 L 19.28125 12.675781 C 19.1875 12.558594 19.085938 12.445312 18.976562 12.335938 C 18.175781 11.535156 17.128906 11.136719 16.082031 11.136719 Z M 14.566406 13.714844 C 14.535156 13.746094 14.503906 13.773438 14.476562 13.804688 L 14.96875 14.296875 L 15.117188 14.265625 Z M 19.894531 15.523438 C 19.78125 15.523438 19.609375 15.558594 19.355469 15.605469 L 16.945312 16.089844 L 17.09375 16.238281 L 19.355469 15.785156 C 19.609375 15.738281 19.78125 15.703125 19.894531 15.703125 C 20.003906 15.703125 20.058594 15.738281 20.078125 15.820312 C 20.101562 15.601562 20.0625 15.523438 19.894531 15.523438 Z M 14.082031 16.378906 L 12.78125 17.679688 C 12.808594 17.714844 12.835938 17.746094 12.863281 17.777344 L 14.082031 16.558594 C 14.164062 16.683594 14.261719 16.800781 14.371094 16.914062 C 15.261719 17.804688 16.695312 17.804688 17.585938 16.914062 L 17.496094 16.820312 C 16.601562 17.621094 15.234375 17.59375 14.371094 16.734375 C 14.261719 16.621094 14.164062 16.503906 14.082031 16.378906 Z M 14.082031 16.378906 "/>
<path style=" stroke:none;fill-rule:nonzero;fill:rgb(0%,0%,0%);fill-opacity:0.235294;" d="M 19.25 12.636719 L 17.980469 13.902344 C 17.898438 13.777344 17.800781 13.660156 17.691406 13.550781 C 16.800781 12.660156 15.367188 12.660156 14.476562 13.550781 L 14.511719 13.585938 C 15.40625 12.734375 16.8125 12.746094 17.691406 13.625 C 17.800781 13.734375 17.898438 13.851562 17.980469 13.976562 L 19.28125 12.675781 C 19.269531 12.664062 19.257812 12.648438 19.25 12.636719 Z M 15.054688 14.203125 L 12.707031 14.675781 C 12.179688 14.78125 11.996094 14.816406 11.980469 14.601562 C 11.964844 14.898438 12.125 14.867188 12.707031 14.75 L 15.117188 14.265625 Z M 20.082031 15.679688 C 20.074219 15.792969 20.042969 15.953125 20 16.175781 L 19.515625 18.585938 L 18.875 17.945312 C 17.269531 19.546875 14.6875 19.546875 13.085938 17.945312 C 12.988281 17.847656 12.898438 17.75 12.816406 17.648438 L 12.78125 17.679688 C 12.875 17.796875 12.976562 17.910156 13.085938 18.019531 C 14.6875 19.621094 17.269531 19.621094 18.875 18.019531 L 19.515625 18.664062 L 20 16.25 C 20.054688 15.976562 20.089844 15.792969 20.082031 15.679688 Z M 17.007812 16.078125 L 16.945312 16.089844 L 17.550781 16.695312 C 17.5625 16.683594 17.574219 16.671875 17.585938 16.660156 Z M 17.007812 16.078125 "/>
<path style=" stroke:none;fill-rule:nonzero;fill:rgb(12.941177%,12.941177%,12.941177%);fill-opacity:1;" d="M 16.082031 11.070312 C 15.039062 11.070312 13.996094 11.464844 13.191406 12.246094 L 12.589844 11.648438 C 12.574219 11.632812 12.550781 11.625 12.527344 11.632812 C 12.503906 11.640625 12.488281 11.660156 12.484375 11.683594 L 12 14.09375 C 11.960938 14.292969 11.929688 14.445312 11.917969 14.5625 C 11.910156 14.679688 11.914062 14.773438 11.976562 14.835938 C 12.039062 14.898438 12.132812 14.90625 12.25 14.894531 C 12.367188 14.882812 12.519531 14.851562 12.71875 14.8125 L 15.132812 14.332031 C 15.15625 14.324219 15.171875 14.308594 15.179688 14.285156 C 15.1875 14.261719 15.179688 14.238281 15.164062 14.222656 L 14.566406 13.625 C 15.4375 12.804688 16.792969 12.820312 17.644531 13.667969 C 17.753906 13.777344 17.847656 13.890625 17.925781 14.011719 C 17.9375 14.03125 17.957031 14.039062 17.976562 14.042969 C 17.992188 14.042969 18.011719 14.035156 18.027344 14.023438 L 19.328125 12.722656 C 19.351562 12.699219 19.351562 12.664062 19.332031 12.636719 C 19.238281 12.515625 19.132812 12.402344 19.023438 12.292969 C 18.210938 11.476562 17.144531 11.070312 16.082031 11.070312 Z M 16.082031 11.199219 C 17.113281 11.199219 18.144531 11.59375 18.933594 12.382812 C 19.023438 12.476562 19.113281 12.574219 19.195312 12.671875 L 17.988281 13.878906 C 17.914062 13.773438 17.832031 13.671875 17.738281 13.578125 C 16.820312 12.664062 15.34375 12.664062 14.429688 13.578125 C 14.40625 13.605469 14.40625 13.644531 14.429688 13.667969 L 14.988281 14.226562 L 12.695312 14.6875 C 12.492188 14.726562 12.34375 14.757812 12.238281 14.765625 C 12.132812 14.773438 12.085938 14.761719 12.070312 14.746094 C 12.050781 14.726562 12.039062 14.679688 12.046875 14.574219 C 12.058594 14.46875 12.085938 14.320312 12.125 14.117188 L 12.585938 11.824219 L 13.144531 12.382812 C 13.167969 12.410156 13.210938 12.410156 13.234375 12.382812 C 14.023438 11.59375 15.054688 11.199219 16.082031 11.199219 Z M 19.894531 15.457031 C 19.765625 15.457031 19.59375 15.492188 19.34375 15.542969 L 16.933594 16.027344 C 16.910156 16.03125 16.890625 16.046875 16.882812 16.070312 C 16.875 16.09375 16.882812 16.117188 16.898438 16.136719 L 17.496094 16.730469 C 16.625 17.554688 15.269531 17.539062 14.417969 16.6875 C 14.308594 16.582031 14.214844 16.464844 14.136719 16.34375 C 14.125 16.328125 14.109375 16.316406 14.089844 16.316406 C 14.070312 16.3125 14.050781 16.320312 14.035156 16.332031 L 12.734375 17.632812 C 12.710938 17.65625 12.710938 17.695312 12.730469 17.71875 C 12.828125 17.839844 12.929688 17.953125 13.039062 18.066406 C 14.652344 19.675781 17.242188 19.691406 18.871094 18.109375 L 19.472656 18.707031 C 19.488281 18.726562 19.511719 18.730469 19.535156 18.722656 C 19.558594 18.71875 19.574219 18.699219 19.582031 18.675781 L 20.0625 16.261719 C 20.117188 15.988281 20.15625 15.808594 20.148438 15.675781 C 20.140625 15.609375 20.121094 15.550781 20.074219 15.511719 C 20.027344 15.472656 19.964844 15.460938 19.894531 15.457031 Z M 19.894531 15.585938 C 19.949219 15.589844 19.976562 15.597656 19.992188 15.609375 C 20.003906 15.621094 20.015625 15.640625 20.019531 15.683594 C 20.023438 15.777344 19.992188 15.960938 19.9375 16.238281 L 19.476562 18.53125 L 18.917969 17.972656 C 18.894531 17.949219 18.855469 17.949219 18.828125 17.972656 C 17.25 19.550781 14.710938 19.550781 13.132812 17.972656 C 13.039062 17.878906 12.949219 17.785156 12.867188 17.683594 L 14.074219 16.480469 C 14.148438 16.585938 14.230469 16.683594 14.328125 16.777344 C 15.242188 17.695312 16.71875 17.695312 17.632812 16.777344 C 17.660156 16.753906 17.660156 16.710938 17.632812 16.6875 L 17.074219 16.128906 L 19.367188 15.671875 C 19.621094 15.621094 19.792969 15.585938 19.894531 15.585938 Z M 19.894531 15.585938 "/>
<path style=" stroke:none;fill-rule:nonzero;fill:url(#linear2);" d="M 2.726562 1.996094 C 2.226562 1.996094 1.824219 2.402344 1.824219 2.902344 L 1.824219 14.726562 C 1.824219 15.410156 2.558594 15.847656 3.160156 15.519531 L 14.074219 9.609375 C 14.707031 9.265625 14.707031 8.359375 14.074219 8.015625 L 3.160156 2.105469 C 3.027344 2.03125 2.878906 1.996094 2.726562 1.996094 Z M 2.726562 1.996094 "/>
<path style=" stroke:none;fill-rule:nonzero;fill:rgb(100%,100%,100%);fill-opacity:0.392157;" d="M 2.726562 1.996094 C 2.226562 1.996094 1.824219 2.402344 1.824219 2.902344 L 1.824219 3.125 C 1.824219 2.625 2.226562 2.21875 2.726562 2.21875 C 2.878906 2.21875 3.027344 2.253906 3.160156 2.328125 L 14.074219 8.238281 C 14.351562 8.390625 14.507812 8.652344 14.542969 8.925781 C 14.585938 8.578125 14.429688 8.207031 14.074219 8.015625 L 3.160156 2.105469 C 3.027344 2.03125 2.878906 1.996094 2.726562 1.996094 Z M 2.726562 1.996094 "/>
<path style=" stroke:none;fill-rule:nonzero;fill:rgb(0%,0%,0%);fill-opacity:0.235294;" d="M 2.726562 15.636719 C 2.226562 15.632812 1.824219 15.226562 1.824219 14.730469 L 1.824219 14.507812 C 1.824219 15.003906 2.226562 15.410156 2.726562 15.410156 C 2.878906 15.414062 3.027344 15.375 3.160156 15.304688 L 14.074219 9.390625 C 14.351562 9.238281 14.507812 8.980469 14.542969 8.707031 C 14.585938 9.054688 14.429688 9.421875 14.074219 9.613281 L 3.160156 15.527344 C 3.027344 15.597656 2.878906 15.636719 2.726562 15.636719 Z M 2.726562 15.636719 "/>
<path style=" stroke:none;fill-rule:nonzero;fill:rgb(12.941177%,12.941177%,12.941177%);fill-opacity:1;" d="M 2.726562 1.929688 C 2.191406 1.933594 1.757812 2.367188 1.757812 2.902344 L 1.757812 14.726562 C 1.757812 15.457031 2.546875 15.925781 3.191406 15.578125 L 14.105469 9.664062 C 14.78125 9.300781 14.78125 8.324219 14.105469 7.960938 L 3.191406 2.046875 C 3.046875 1.96875 2.886719 1.929688 2.726562 1.929688 Z M 2.726562 2.058594 C 2.867188 2.058594 3.003906 2.09375 3.128906 2.160156 L 14.042969 8.074219 C 14.632812 8.394531 14.632812 9.234375 14.042969 9.550781 L 3.128906 15.464844 C 2.566406 15.769531 1.886719 15.367188 1.886719 14.726562 L 1.886719 2.902344 C 1.886719 2.4375 2.261719 2.0625 2.726562 2.058594 Z M 2.726562 2.058594 "/>
</g>
</svg>

<svg xmlns="http://www.w3.org/2000/svg" width="22pt" height="22pt" viewBox="0 0 22 22"><defs><linearGradient id="a" gradientUnits="userSpaceOnUse" x1="254" y1="233.5" x2="254" y2="254.667" gradientTransform="matrix(.04297 0 0 .04297 .227 9.24)"><stop offset="0" stop-opacity=".275"/><stop offset="1" stop-opacity="0"/></linearGradient><radialGradient id="b" gradientUnits="userSpaceOnUse" cx="450.909" cy="189.579" fx="450.909" fy="189.579" r="21.167" gradientTransform="matrix(0 -.05372 -.09669 0 34.475 43.722)"><stop offset="0" stop-opacity=".314"/><stop offset=".222" stop-opacity=".275"/><stop offset="1" stop-opacity="0"/></radialGradient><radialGradient id="c" gradientUnits="userSpaceOnUse" cx="450.909" cy="189.579" fx="450.909" fy="189.579" r="21.167" gradientTransform="matrix(0 .05372 .09669 0 -2.64 -5.175)"><stop offset="0" stop-opacity=".314"/><stop offset=".222" stop-opacity=".275"/><stop offset="1" stop-opacity="0"/></radialGradient><radialGradient id="d" gradientUnits="userSpaceOnUse" cx="450.909" cy="189.579" fx="450.909" fy="189.579" r="21.167" gradientTransform="matrix(0 -.05372 .09669 0 -2.64 43.722)"><stop offset="0" stop-opacity=".314"/><stop offset=".222" stop-opacity=".275"/><stop offset="1" stop-opacity="0"/></radialGradient><radialGradient id="e" gradientUnits="userSpaceOnUse" cx="450.909" cy="189.579" fx="450.909" fy="189.579" r="21.167" gradientTransform="matrix(0 .05372 -.09669 0 34.475 -5.175)"><stop offset="0" stop-opacity=".314"/><stop offset=".222" stop-opacity=".275"/><stop offset="1" stop-opacity="0"/></radialGradient><linearGradient id="f" gradientUnits="userSpaceOnUse" x1="1102.303" y1="1593.402" x2="1611.42" y2="1084.285" gradientTransform="rotate(-45.001 15.655 14.53) scale(.01137)"><stop offset="0" stop-color="#ff7043"/><stop offset="1" stop-color="#ff8a65"/></linearGradient><linearGradient id="g" gradientUnits="userSpaceOnUse" x1="190.5" y1="148.833" x2="190.5" y2="-168.667" gradientTransform="matrix(.04297 0 0 .04297 0 9.24)"><stop offset="0" stop-color="#42a5f5"/><stop offset="1" stop-color="#64b5f6"/></linearGradient></defs><path d="M15.465 19.273h.906v.91h-.906zm0 0" fill="url(#a)"/><path d="M16.371 19.273h1.82v-.91h-1.82zm0 0" fill="url(#b)"/><path d="M15.465 19.273h-1.82v.91h1.82zm0 0" fill="url(#c)"/><path d="M15.465 19.273h-1.82v-.91h1.82zm0 0" fill="url(#d)"/><path d="M16.371 19.273h1.82v.91h-1.82zm0 0" fill="url(#e)"/><path d="M16.082 11.137c-1.047 0-2.09.398-2.895 1.199l-.64-.64-.485 2.41c-.16.804-.16.804.645.644l2.41-.484-.64-.641c.89-.89 2.324-.89 3.214 0 .11.11.207.227.29.352l1.3-1.301a4.079 4.079 0 0 0-3.2-1.54zm3.813 4.386c-.114 0-.286.036-.54.082l-2.41.485.64.644a2.268 2.268 0 0 1-3.503-.355l-1.3 1.3a4.088 4.088 0 0 0 6.094.34l.64.645L20 16.25c.11-.55.145-.727-.105-.727zm0 0" fill="#fff" fill-opacity=".392"/><path d="M16.082 11.137c-1.047 0-2.09.398-2.895 1.199l-.64-.64-.485 2.41c-.16.804-.16.804.645.644l2.41-.484-.64-.641c.89-.89 2.324-.89 3.214 0 .11.11.207.227.29.352l1.3-1.301a4.079 4.079 0 0 0-3.2-1.54zm3.813 4.386c-.114 0-.286.036-.54.082l-2.41.485.64.644a2.268 2.268 0 0 1-3.503-.355l-1.3 1.3a4.088 4.088 0 0 0 6.094.34l.64.645L20 16.25c.11-.55.145-.727-.105-.727zm0 0" fill="url(#f)"/><path d="M16.082 11.137c-1.047 0-2.09.398-2.895 1.199l-.64-.64-.485 2.41c-.062.312-.097.503-.074.609.012-.106.04-.246.075-.43l.484-2.41.64.64a4.083 4.083 0 0 1 6.012.242l.082-.081a4.079 4.079 0 0 0-3.2-1.54zm-1.516 2.578c-.03.031-.062.058-.09.09l.493.492.148-.031zm5.329 1.808c-.114 0-.286.036-.54.082l-2.41.485.149.148 2.261-.453c.254-.047.426-.082.54-.082.109 0 .164.035.183.117.024-.218-.015-.297-.183-.297zm-5.813.856l-1.3 1.3c.027.036.054.067.081.098l1.219-1.218a2.268 2.268 0 0 0 3.504.355l-.09-.094a2.273 2.273 0 0 1-3.414-.441zm0 0" fill="#fff" fill-opacity=".392"/><path d="M19.25 12.637l-1.27 1.265a2.23 2.23 0 0 0-.289-.351 2.268 2.268 0 0 0-3.214 0l.035.035a2.272 2.272 0 0 1 3.468.39l1.301-1.3a.274.274 0 0 1-.031-.04zm-4.195 1.566l-2.348.473c-.527.105-.71.14-.727-.074-.015.296.145.265.727.148l2.41-.484zm5.027 1.477c-.008.113-.039.273-.082.496l-.484 2.41-.641-.64a4.088 4.088 0 0 1-6.059-.298l-.035.032a4.088 4.088 0 0 0 6.094.34l.64.644L20 16.25c.055-.273.09-.457.082-.57zm-3.074.398l-.063.012.606.605.035-.035zm0 0" fill-opacity=".235"/><path d="M16.082 11.07a4.142 4.142 0 0 0-2.89 1.176l-.602-.598a.06.06 0 0 0-.063-.015.064.064 0 0 0-.043.05L12 14.094c-.04.2-.07.352-.082.47-.008.117-.004.21.059.273.062.062.156.07.273.059.117-.012.27-.043.469-.082l2.414-.481a.07.07 0 0 0 .047-.047.06.06 0 0 0-.016-.062l-.598-.598a2.206 2.206 0 0 1 3.36.387c.012.02.031.027.05.031a.092.092 0 0 0 .051-.02l1.301-1.3c.024-.024.024-.059.004-.086a3.66 3.66 0 0 0-.309-.344 4.138 4.138 0 0 0-2.941-1.223zm0 .13a4.02 4.02 0 0 1 3.113 1.472l-1.207 1.207a2.27 2.27 0 0 0-.25-.3 2.339 2.339 0 0 0-3.308 0c-.024.026-.024.066 0 .089l.558.559-2.293.46c-.203.04-.351.07-.457.079-.105.007-.152-.004-.168-.02-.02-.02-.03-.066-.023-.172.012-.105.039-.254.078-.457l.46-2.293.56.559a.06.06 0 0 0 .09 0 4.018 4.018 0 0 1 2.847-1.184zm3.813 4.257c-.13 0-.301.035-.551.086l-2.41.484a.064.064 0 0 0-.051.043c-.008.024 0 .047.015.067l.598.593a2.2 2.2 0 0 1-3.078-.043 1.935 1.935 0 0 1-.281-.343c-.012-.016-.028-.028-.047-.028a.07.07 0 0 0-.055.016l-1.3 1.3a.066.066 0 0 0-.005.087 4.151 4.151 0 0 0 6.14.39l.603.598c.015.02.039.023.062.016.024-.004.04-.024.047-.047l.48-2.414c.055-.274.094-.453.086-.586-.007-.067-.027-.125-.074-.164-.047-.04-.11-.051-.18-.055zm0 .129c.054.004.082.012.097.023.012.012.024.032.028.075.003.093-.028.277-.082.554l-.461 2.293-.559-.558c-.023-.024-.063-.024-.09 0a4.017 4.017 0 0 1-5.695 0 3.694 3.694 0 0 1-.266-.29l1.207-1.203c.074.106.156.204.254.297.914.918 2.39.918 3.305 0a.06.06 0 0 0 0-.09l-.559-.558 2.293-.457c.254-.05.426-.086.528-.086zm0 0" fill="#212121"/><path d="M2.727 1.996c-.5 0-.903.406-.903.906v11.825a.904.904 0 0 0 1.336.793l10.914-5.91a.906.906 0 0 0 0-1.594L3.16 2.106a.883.883 0 0 0-.433-.11zm0 0" fill="url(#g)"/><path d="M2.727 1.996c-.5 0-.903.406-.903.906v.223a.904.904 0 0 1 1.336-.797l10.914 5.91a.91.91 0 0 1 .469.688.9.9 0 0 0-.469-.91L3.16 2.106a.883.883 0 0 0-.433-.11zm0 0" fill="#fff" fill-opacity=".392"/><path d="M2.727 15.637a.909.909 0 0 1-.903-.907v-.222c0 .496.403.902.903.902a.88.88 0 0 0 .433-.105L14.074 9.39a.903.903 0 0 0 .469-.684.894.894 0 0 1-.469.906L3.16 15.527a.927.927 0 0 1-.433.11zm0 0" fill-opacity=".235"/><path d="M2.727 1.93a.974.974 0 0 0-.97.972v11.825c0 .73.79 1.199 1.434.851l10.914-5.914a.969.969 0 0 0 0-1.703L3.191 2.047a.978.978 0 0 0-.464-.117zm0 .129c.14 0 .277.035.402.101l10.914 5.914c.59.32.59 1.16 0 1.477L3.129 15.465a.839.839 0 0 1-1.242-.738V2.902c0-.465.375-.84.84-.843zm0 0" fill="#212121"/></svg>
